images/borrar.svg

<svg id="Capa_1" data-name="Capa 1" xmlns="http://www.w3.org/2000/svg" viewBox="0 0 10.91 14"><defs><style>.cls-1{fill:#0077b0;}</style></defs><title>borrar</title><path class="cls-1" d="M9.8,1.8h-1a0.22,0.22,0,0,1-.2-0.2V1.2A1.16,1.16,0,0,0,7.4,0H3.6A1.16,1.16,0,0,0,2.4,1.2V1.6a0.22,0.22,0,0,1-.2.2h-1A1.22,1.22,0,0,0,0,3V4.1a0.22,0.22,0,0,0,.2.2H10.7a0.22,0.22,0,0,0,.2-0.2V3A1.07,1.07,0,0,0,9.8,1.8h0ZM7.6,1.6a0.22,0.22,0,0,1-.2.2H3.6a0.22,0.22,0,0,1-.2-0.2V1.2A0.22,0.22,0,0,1,3.6,1H7.4a0.22,0.22,0,0,1,.2.2V1.6Z"/><path class="cls-1" d="M9.7,5H1.3a0.25,0.25,0,0,0-.3.2v7.6A1.22,1.22,0,0,0,2.2,14H8.7a1.16,1.16,0,0,0,1.2-1.2V5.2C10,5.1,9.9,5,9.7,5h0ZM3.5,12.3a0.47,0.47,0,0,1-.5.5,0.47,0.47,0,0,1-.5-0.5V6.5A0.63,0.63,0,0,1,3,6a0.47,0.47,0,0,1,.5.5v5.8Zm2.5,0a0.47,0.47,0,0,1-.5.5A0.47,0.47,0,0,1,5,12.3V6.5A0.47,0.47,0,0,1,5.5,6a0.47,0.47,0,0,1,.5.5v5.8Zm2.4,0a0.5,0.5,0,0,1-1,0V6.5A0.63,0.63,0,0,1,8,6a0.47,0.47,0,0,1,.5.5v5.8H8.4Z"/></svg>

<?xml version="1.0" encoding="utf-8"?>
<!-- Generator: Adobe Illustrator 18.0.0, SVG Export Plug-In . SVG Version: 6.00 Build 0)  -->
<!DOCTYPE svg PUBLIC "-//W3C//DTD SVG 1.1//EN" "http://www.w3.org/Graphics/SVG/1.1/DTD/svg11.dtd">
<svg version="1.1" id="Capa_1" xmlns="http://www.w3.org/2000/svg" xmlns:xlink="http://www.w3.org/1999/xlink" x="0px" y="0px"
	 viewBox="0 0 11 14" enable-background="new 0 0 11 14" xml:space="preserve">
<g>
	<path fill="#4376AC" d="M9.8,1.8H8.8c-0.1,0-0.2-0.1-0.2-0.2V1.2C8.6,0.5,8.1,0,7.4,0H3.6C2.9,0,2.4,0.5,2.4,1.2v0.4
		c0,0.1-0.1,0.2-0.2,0.2H1.2C0.5,1.8,0,2.4,0,3v1.1c0,0.1,0.1,0.2,0.2,0.2h10.5c0.1,0,0.2-0.1,0.2-0.2V3C11,2.4,10.5,1.8,9.8,1.8
		L9.8,1.8z M7.6,1.6c0,0.1-0.1,0.2-0.2,0.2H3.6c-0.1,0-0.2-0.1-0.2-0.2V1.2c0-0.1,0.1-0.2,0.2-0.2h3.8c0.1,0,0.2,0.1,0.2,0.2V1.6z
		 M7.6,1.6"/>
	<path fill="#4376AC" d="M9.7,5H1.3C1.1,5,1,5.1,1,5.2v7.6C1,13.5,1.6,14,2.2,14h6.5c0.7,0,1.2-0.5,1.2-1.2V5.2C10,5.1,9.9,5,9.7,5
		L9.7,5z M3.5,12.3c0,0.3-0.2,0.5-0.5,0.5c-0.3,0-0.5-0.2-0.5-0.5V6.5C2.6,6.2,2.8,6,3,6c0.3,0,0.5,0.2,0.5,0.5V12.3z M6,12.3
		c0,0.3-0.2,0.5-0.5,0.5c-0.3,0-0.5-0.2-0.5-0.5V6.5C5,6.2,5.2,6,5.5,6C5.8,6,6,6.2,6,6.5V12.3z M8.4,12.3c0,0.3-0.2,0.5-0.5,0.5
		c-0.3,0-0.5-0.2-0.5-0.5V6.5C7.5,6.2,7.7,6,8,6c0.3,0,0.5,0.2,0.5,0.5V12.3z M8.4,12.3"/>
</g>
</svg>
